src/assets/images/products.svg

<svg width="150" height="24" viewBox="0 0 150 24" fill="none" xmlns="http://www.w3.org/2000/svg">
    <path fill-rule="evenodd" clip-rule="evenodd" d="M14.8902 4.03331C15.5764 3.23057 16.0389 2.11243 15.9124 1C14.9235 1.038 13.7272 1.63744 13.0182 2.43923C12.3815 3.15077 11.8257 4.2879 11.9751 5.37849C13.0782 5.46114 14.204 4.837 14.8902 4.03331ZM17.3638 11.0936C17.3914 13.9692 19.9715 14.9259 20 14.9382C19.9791 15.0057 19.5879 16.3014 18.641 17.6409C17.8215 18.798 16.9717 19.9503 15.6326 19.975C14.3173 19.9988 13.8938 19.2208 12.3892 19.2208C10.8854 19.2208 10.4153 19.9503 9.17045 19.9988C7.87802 20.0453 6.893 18.7467 6.06786 17.5934C4.37952 15.2346 3.08994 10.9274 4.82206 8.02041C5.68241 6.57738 7.21943 5.66254 8.88874 5.63974C10.1574 5.61599 11.3556 6.46528 12.1312 6.46528C12.9069 6.46528 14.363 5.44404 15.8934 5.59414C16.5339 5.61979 18.3326 5.84399 19.487 7.47891C19.3938 7.53496 17.3409 8.69015 17.3638 11.0936Z" fill="#A4A4A4"/>
    <path fill-rule="evenodd" clip-rule="evenodd" d="M52 2.11902C46.4862 2.11902 42.119 6.48616 42.119 12C42.119 17.5143 46.4862 21.8809 52 21.8809C57.5138 21.8809 61.8809 17.5143 61.8809 12C61.8809 6.48616 57.5143 2.11902 52 2.11902ZM53.1427 7.59341V7.39794L52.5352 7.43966C52.3632 7.45052 52.234 7.4871 52.1471 7.54883C52.0602 7.61112 52.0168 7.69743 52.0168 7.80773C52.0168 7.91518 52.0597 8.00091 52.146 8.06435C52.2317 8.12837 52.3472 8.1598 52.4912 8.1598C52.5832 8.1598 52.6695 8.14551 52.7489 8.11751C52.8284 8.0895 52.8981 8.05007 52.9564 7.99977C53.0147 7.95005 53.0604 7.89061 53.093 7.82145C53.1262 7.75229 53.1427 7.67628 53.1427 7.59341ZM54.2498 6.75383C54.3058 6.59666 54.3846 6.46177 54.4869 6.34975C54.5892 6.23773 54.7121 6.15143 54.8562 6.09084C55.0002 6.03026 55.1608 5.99997 55.3374 5.99997C55.4968 5.99997 55.6409 6.02397 55.7689 6.07141C55.8975 6.11885 56.0072 6.18286 56.0992 6.26345C56.1913 6.34404 56.2644 6.43777 56.3181 6.54522C56.3719 6.65267 56.4039 6.7664 56.4147 6.88585H55.9386C55.9266 6.82013 55.9049 6.7584 55.8741 6.70182C55.8432 6.64524 55.8026 6.59608 55.7523 6.55436C55.7015 6.51264 55.642 6.48006 55.574 6.45663C55.5054 6.43262 55.4288 6.42119 55.3425 6.42119C55.2414 6.42119 55.1494 6.44177 55.0676 6.48235C54.9853 6.52293 54.915 6.58065 54.8567 6.65495C54.7984 6.72925 54.7533 6.82013 54.7213 6.92643C54.6887 7.03331 54.6727 7.15162 54.6727 7.28193C54.6727 7.41681 54.6887 7.53798 54.7213 7.64429C54.7533 7.75116 54.799 7.84089 54.8584 7.91462C54.9173 7.98835 54.9887 8.04493 55.0716 8.0838C55.1545 8.12266 55.2459 8.14267 55.3454 8.14267C55.5083 8.14267 55.6409 8.10437 55.7438 8.02779C55.8466 7.9512 55.9129 7.83918 55.9438 7.69172H56.4205C56.4067 7.82203 56.3707 7.94091 56.3124 8.04836C56.2541 8.15581 56.1787 8.24726 56.0861 8.32327C55.9929 8.39929 55.8838 8.45816 55.758 8.49931C55.6323 8.54046 55.494 8.5616 55.3437 8.5616C55.1654 8.5616 55.0048 8.53188 54.8602 8.47302C54.7161 8.41415 54.5921 8.32899 54.4892 8.21868C54.3863 8.10837 54.3069 7.97406 54.2509 7.81575C54.1949 7.65743 54.1669 7.47968 54.1669 7.28136C54.1657 7.08761 54.1937 6.91157 54.2498 6.75383ZM47.4754 6.03252H47.952V6.45603H47.9612C47.9903 6.38573 48.0286 6.32229 48.0755 6.26742C48.1223 6.21198 48.1761 6.16512 48.2378 6.12568C48.2989 6.08625 48.367 6.05653 48.4401 6.03595C48.5138 6.01537 48.5916 6.00509 48.6727 6.00509C48.8476 6.00509 48.9956 6.04681 49.1157 6.13025C49.2363 6.2137 49.322 6.33372 49.3723 6.49032H49.3843C49.4163 6.41488 49.4586 6.34744 49.5106 6.288C49.5626 6.22856 49.6226 6.17712 49.6901 6.13483C49.7575 6.09253 49.8318 6.06053 49.9124 6.03824C49.993 6.01595 50.0776 6.00509 50.1667 6.00509C50.2896 6.00509 50.4011 6.02452 50.5017 6.06396C50.6022 6.10339 50.688 6.15826 50.7594 6.2297C50.8309 6.30114 50.8857 6.38802 50.924 6.48975C50.9623 6.59149 50.9817 6.70465 50.9817 6.82925V8.533H50.4845V6.9487C50.4845 6.78467 50.4422 6.65721 50.3576 6.56748C50.2736 6.47775 50.153 6.4326 49.9964 6.4326C49.9198 6.4326 49.8495 6.44631 49.7855 6.47318C49.7221 6.50004 49.6666 6.53776 49.6209 6.58634C49.5746 6.63435 49.5386 6.69265 49.5129 6.76009C49.4866 6.82753 49.4735 6.90126 49.4735 6.98127V8.533H48.9831V6.90755C48.9831 6.83553 48.9716 6.77038 48.9494 6.71208C48.9271 6.65378 48.8956 6.60406 48.8539 6.56234C48.8128 6.52061 48.7619 6.48918 48.703 6.46689C48.6436 6.4446 48.5773 6.43317 48.5036 6.43317C48.427 6.43317 48.3561 6.44746 48.2904 6.47603C48.2252 6.50461 48.1692 6.54405 48.1223 6.59434C48.0755 6.64521 48.0389 6.70465 48.0132 6.77381C47.988 6.84239 47.9469 6.91783 47.9469 6.99899V8.53243H47.4754V6.03252ZM48.5573 18C46.3711 18 45 16.4808 45 14.0564C45 11.6319 46.3711 10.1076 48.5573 10.1076C50.7434 10.1076 52.1094 11.6319 52.1094 14.0564C52.1094 16.4803 50.7434 18 48.5573 18ZM52.6048 8.52674C52.5243 8.54732 52.442 8.5576 52.3574 8.5576C52.2328 8.5576 52.119 8.53989 52.0156 8.50445C51.9116 8.46902 51.823 8.41929 51.7487 8.35471C51.6744 8.29012 51.6161 8.21239 51.5749 8.12095C51.5332 8.0295 51.5126 7.92777 51.5126 7.81575C51.5126 7.59628 51.5944 7.42481 51.7578 7.30136C51.9213 7.17791 52.1579 7.1059 52.4682 7.08589L53.1427 7.04703V6.85385C53.1427 6.70982 53.0969 6.59951 53.0055 6.52464C52.914 6.44977 52.7849 6.41205 52.6174 6.41205C52.55 6.41205 52.4865 6.42062 52.4282 6.4372C52.3699 6.45434 52.3185 6.47835 52.2739 6.50978C52.2293 6.54122 52.1922 6.57894 52.1636 6.62295C52.1345 6.66638 52.1145 6.71554 52.1036 6.76926H51.6361C51.6389 6.65895 51.6664 6.55665 51.7178 6.46292C51.7693 6.36918 51.839 6.28802 51.9276 6.21887C52.0162 6.14971 52.1196 6.09599 52.2396 6.05769C52.3597 6.0194 52.49 5.99997 52.6311 5.99997C52.7832 5.99997 52.9209 6.01883 53.0444 6.05769C53.1678 6.09656 53.2735 6.15086 53.361 6.2223C53.4484 6.29374 53.5159 6.37947 53.5633 6.48006C53.6108 6.58065 53.6348 6.69325 53.6348 6.81727V8.53246H53.1587V8.1158H53.1467C53.1112 8.18325 53.0666 8.2444 53.0124 8.2987C52.9575 8.35299 52.8963 8.39986 52.8283 8.43815C52.7597 8.47645 52.6854 8.50617 52.6048 8.52674ZM55.75 18C54.0829 18 52.9495 17.1267 52.8706 15.7555H53.956C54.0406 16.5391 54.7979 17.0581 55.8352 17.0581C56.8303 17.0581 57.5453 16.5391 57.5453 15.8298C57.5453 15.216 57.1109 14.8451 56.1055 14.5913L55.1259 14.3478C53.7177 13.9986 53.0775 13.3579 53.0775 12.3046C53.0775 11.0078 54.2103 10.1076 55.8249 10.1076C57.4024 10.1076 58.5031 11.0129 58.5454 12.3149H57.471C57.3967 11.5313 56.7565 11.0495 55.8032 11.0495C54.8556 11.0495 54.1995 11.5364 54.1995 12.2406C54.1995 12.7961 54.6121 13.1247 55.618 13.3785L56.4439 13.5848C58.0162 13.9661 58.662 14.5856 58.662 15.6972C58.6615 17.1158 57.5395 18 55.75 18ZM48.5573 11.0809C47.0593 11.0809 46.1225 12.2297 46.1225 14.0558C46.1225 15.8767 47.0593 17.0255 48.5573 17.0255C50.0501 17.0255 50.992 15.8767 50.992 14.0558C50.9926 12.2297 50.0501 11.0809 48.5573 11.0809Z" fill="#A4A4A4"/>
    <path d="M91.4799 2H82V11.4799H91.4799V2Z" fill="#A4A4A4"/>
    <path d="M102 2H92.52V11.4799H102V2Z" fill="#A4A4A4"/>
    <path d="M91.4799 12.5209H82V22.0008H91.4799V12.5209Z" fill="#A4A4A4"/>
    <path d="M102 12.5209H92.52V22.0008H102V12.5209Z" fill="#A4A4A4"/>
    <path d="M123.511 19.0695C122.995 19.0695 122.647 19.4751 122.647 19.9966C122.647 20.518 122.995 20.9236 123.511 20.9236C124.028 20.9236 124.376 20.518 124.376 19.9966C124.371 19.4751 124.023 19.0695 123.511 19.0695ZM123.395 18.4949C123.811 18.4949 124.158 18.7073 124.323 18.9391V18.5528H124.96V21.4451H124.467C124.429 21.445 124.392 21.4297 124.365 21.4026C124.338 21.3754 124.323 21.3387 124.323 21.3003V21.0588C124.158 21.2906 123.816 21.5031 123.395 21.5031C122.604 21.5031 122 20.8271 122 20.0014C122 19.1757 122.599 18.4949 123.395 18.4949ZM125.684 18.5528H126.322V18.9439C126.495 18.6542 126.824 18.4949 127.2 18.4949C127.872 18.4949 128.306 18.9681 128.306 19.702V21.4451H127.818C127.78 21.445 127.743 21.4297 127.716 21.4026C127.689 21.3754 127.674 21.3387 127.674 21.3003V19.8082C127.674 19.3495 127.442 19.0743 127.07 19.0743C126.65 19.0743 126.322 19.4026 126.322 20.0207V21.4451H125.834C125.796 21.445 125.759 21.4297 125.732 21.4026C125.704 21.3754 125.689 21.3387 125.689 21.3003L125.684 18.5528ZM130.315 19.0695C129.798 19.0695 129.451 19.4751 129.451 19.9966C129.451 20.518 129.798 20.9236 130.315 20.9236C130.831 20.9236 131.179 20.518 131.179 19.9966C131.179 19.4751 130.831 19.0695 130.315 19.0695ZM130.199 18.4949C130.614 18.4949 130.962 18.7073 131.126 18.9391V17.1042H131.763V21.4451H131.276C131.237 21.445 131.201 21.4297 131.173 21.4026C131.146 21.3754 131.131 21.3387 131.131 21.3003V21.0588C130.967 21.2906 130.624 21.5031 130.204 21.5031C129.412 21.5031 128.808 20.8271 128.808 20.0014C128.808 19.1757 129.407 18.4949 130.199 18.4949ZM132.488 18.5528H133.125V19.0695C133.181 18.9113 133.284 18.7742 133.421 18.6766C133.557 18.579 133.72 18.5257 133.888 18.5238C133.971 18.5223 134.053 18.5304 134.134 18.548V19.1998C134.031 19.1654 133.924 19.1475 133.816 19.1467C133.453 19.1467 133.12 19.4558 133.12 20.0304V21.4403H132.633C132.594 21.4402 132.557 21.4249 132.53 21.3978C132.503 21.3706 132.488 21.3338 132.488 21.2954V18.5528ZM135.848 20.9092C136.355 20.9092 136.718 20.5084 136.718 19.9966C136.718 19.4799 136.36 19.084 135.848 19.084C135.332 19.084 134.974 19.4847 134.974 19.9966C134.979 20.5132 135.332 20.9092 135.848 20.9092ZM135.848 21.5031C135.551 21.5007 135.262 21.4104 135.016 21.2436C134.77 21.0768 134.579 20.8409 134.467 20.5657C134.355 20.2905 134.327 19.9883 134.387 19.6973C134.446 19.4062 134.591 19.1393 134.802 18.9303C135.013 18.7212 135.281 18.5794 135.573 18.5226C135.864 18.4658 136.166 18.4966 136.44 18.6112C136.715 18.7257 136.949 18.9189 137.113 19.1663C137.278 19.4137 137.365 19.7043 137.365 20.0014C137.366 20.2001 137.327 20.397 137.251 20.5806C137.175 20.7642 137.063 20.9308 136.922 21.0706C136.781 21.2104 136.613 21.3207 136.429 21.395C136.244 21.4692 136.047 21.506 135.848 21.5031ZM137.881 18.5528H138.519V21.4451H138.031C137.993 21.445 137.956 21.4297 137.929 21.4026C137.901 21.3754 137.886 21.3387 137.886 21.3003L137.881 18.5528ZM138.2 17.9203C138.086 17.9192 137.978 17.8736 137.897 17.7932C137.817 17.7129 137.771 17.6042 137.77 17.4905C137.772 17.3781 137.819 17.2712 137.899 17.1926C137.979 17.114 138.088 17.0702 138.2 17.0704C138.313 17.0704 138.421 17.1152 138.5 17.1949C138.58 17.2746 138.625 17.3827 138.625 17.4954C138.625 17.608 138.58 17.7161 138.5 17.7958C138.421 17.8755 138.313 17.9203 138.2 17.9203ZM140.551 19.0695C140.035 19.0695 139.687 19.4751 139.687 19.9966C139.687 20.518 140.035 20.9236 140.551 20.9236C141.068 20.9236 141.416 20.518 141.416 19.9966C141.406 19.4751 141.068 19.0695 140.551 19.0695ZM140.436 18.4949C140.851 18.4949 141.198 18.7073 141.363 18.9391V17.1042H142V21.4451H141.512C141.474 21.445 141.437 21.4297 141.41 21.4026C141.383 21.3754 141.368 21.3387 141.367 21.3003V21.0588C141.203 21.2906 140.86 21.5031 140.44 21.5031C139.648 21.5031 139.045 20.8271 139.045 20.0014C139.045 19.1757 139.644 18.4949 140.436 18.4949Z" fill="#A4A4A4"/>
    <path d="M136.901 7.39876L138.567 4.5161C138.612 4.43678 138.623 4.34306 138.599 4.25523C138.575 4.1674 138.518 4.09252 138.439 4.04681C138.36 4.0011 138.267 3.98824 138.179 4.011C138.09 4.03377 138.015 4.09033 137.968 4.16844L136.283 7.08491C134.938 6.48016 133.48 6.16748 132.005 6.16748C130.53 6.16748 129.072 6.48016 127.727 7.08491L126.042 4.16844C125.995 4.09033 125.919 4.03377 125.831 4.011C125.743 3.98824 125.649 4.0011 125.571 4.04681C125.492 4.09252 125.434 4.1674 125.41 4.25523C125.386 4.34306 125.398 4.43678 125.443 4.5161L127.109 7.39876C124.236 8.95357 122.285 11.8459 122 15.2597H141.99C141.705 11.8459 139.75 8.95357 136.901 7.39876ZM127.398 12.4108C127.234 12.4108 127.074 12.3621 126.937 12.2709C126.8 12.1796 126.694 12.0499 126.631 11.8981C126.568 11.7464 126.552 11.5794 126.584 11.4183C126.616 11.2572 126.695 11.1092 126.811 10.9931C126.927 10.8769 127.075 10.7978 127.236 10.7658C127.397 10.7337 127.564 10.7502 127.716 10.813C127.868 10.8759 127.998 10.9823 128.089 11.1189C128.18 11.2555 128.229 11.4161 128.229 11.5803C128.229 11.8006 128.141 12.0118 127.986 12.1676C127.83 12.3233 127.619 12.4108 127.398 12.4108ZM136.602 12.4108C136.437 12.4108 136.277 12.3621 136.14 12.2709C136.004 12.1796 135.897 12.0499 135.834 11.8981C135.771 11.7464 135.755 11.5794 135.787 11.4183C135.819 11.2572 135.898 11.1092 136.014 10.9931C136.131 10.8769 136.279 10.7978 136.44 10.7658C136.601 10.7337 136.768 10.7502 136.919 10.813C137.071 10.8759 137.201 10.9823 137.292 11.1189C137.383 11.2555 137.432 11.4161 137.432 11.5803C137.432 11.8006 137.345 12.0118 137.189 12.1676C137.033 12.3233 136.822 12.4108 136.602 12.4108Z" fill="#A4A4A4"/>
</svg>

<svg xmlns="http://www.w3.org/2000/svg" width="264" height="24" fill="none"><path fill="#A4A4A4" fill-rule="evenodd" d="M15.25 3.51A4.83 4.83 0 0 0 16.4 0a4.96 4.96 0 0 0-3.25 1.67 4.6 4.6 0 0 0-1.18 3.4 4.1 4.1 0 0 0 3.28-1.56Zm2.78 8.18c.03 3.33 2.94 4.44 2.97 4.45-.02.08-.46 1.58-1.53 3.13-.92 1.34-1.88 2.67-3.38 2.7-1.48.03-1.96-.87-3.65-.87-1.7 0-2.22.84-3.62.9-1.46.05-2.56-1.45-3.5-2.79-1.9-2.73-3.34-7.71-1.4-11.08A5.42 5.42 0 0 1 8.5 5.37c1.43-.02 2.77.96 3.65.96.87 0 2.5-1.18 4.23-1.01.72.03 2.74.29 4.04 2.18-.1.07-2.41 1.4-2.39 4.19ZM52 2.12c-5.51 0-9.88 4.37-9.88 9.88s4.37 9.88 9.88 9.88 9.88-4.37 9.88-9.88S57.51 2.12 52 2.12Zm1.14 5.47v-.2l-.6.05a.74.74 0 0 0-.4.1.3.3 0 0 0-.12.27c0 .1.04.2.13.25a.56.56 0 0 0 .34.1.77.77 0 0 0 .26-.04.64.64 0 0 0 .2-.12.53.53 0 0 0 .2-.4Zm1.11-.84c.06-.15.14-.29.24-.4.1-.11.22-.2.37-.26.14-.06.3-.09.48-.09.16 0 .3.02.43.07s.24.11.33.2a.92.92 0 0 1 .31.62h-.47a.61.61 0 0 0-.07-.19.5.5 0 0 0-.12-.15.57.57 0 0 0-.18-.1.7.7 0 0 0-.5.03.6.6 0 0 0-.21.17.82.82 0 0 0-.14.28 1.22 1.22 0 0 0-.05.35c0 .14.02.26.05.36a.78.78 0 0 0 .14.27c.06.08.13.13.21.17a.64.64 0 0 0 .28.06.65.65 0 0 0 .4-.11.54.54 0 0 0 .2-.34h.47a.92.92 0 0 1-.33.63 1.01 1.01 0 0 1-.33.18 1.33 1.33 0 0 1-.42.06 1.27 1.27 0 0 1-.48-.09 1.04 1.04 0 0 1-.37-.25 1.14 1.14 0 0 1-.24-.4 1.6 1.6 0 0 1-.08-.54c0-.2.02-.37.08-.53Zm-6.78-.72h.48v.43h.01a.7.7 0 0 1 .28-.33.7.7 0 0 1 .2-.1.86.86 0 0 1 .23-.02c.18 0 .33.04.45.12.12.08.2.2.25.36h.01a.75.75 0 0 1 .13-.2.81.81 0 0 1 .4-.25.95.95 0 0 1 .26-.03.91.91 0 0 1 .33.05.72.72 0 0 1 .42.43.96.96 0 0 1 .06.34v1.7h-.5V6.95c0-.17-.04-.3-.12-.38-.09-.1-.2-.14-.36-.14a.54.54 0 0 0-.21.04.48.48 0 0 0-.28.29.6.6 0 0 0-.04.22v1.55h-.49V6.91a.54.54 0 0 0-.03-.2.42.42 0 0 0-.25-.24.56.56 0 0 0-.41 0 .5.5 0 0 0-.28.3c-.02.07-.06.15-.06.23v1.53h-.48v-2.5ZM48.57 18C46.37 18 45 16.48 45 14.06s1.37-3.95 3.56-3.95 3.55 1.52 3.55 3.95S50.74 18 48.56 18Zm4.04-9.47a1.05 1.05 0 0 1-.58-.03.79.79 0 0 1-.27-.15.67.67 0 0 1-.17-.23.73.73 0 0 1-.07-.3c0-.22.08-.4.25-.52.16-.12.4-.2.7-.21l.68-.04v-.2c0-.14-.04-.25-.13-.33a.6.6 0 0 0-.4-.1.69.69 0 0 0-.18.02.52.52 0 0 0-.16.07.42.42 0 0 0-.17.26h-.46a.67.67 0 0 1 .08-.3.79.79 0 0 1 .2-.25.99.99 0 0 1 .32-.16 1.36 1.36 0 0 1 .8 0 .94.94 0 0 1 .32.16.73.73 0 0 1 .27.6v1.71h-.47v-.41h-.01a.75.75 0 0 1-.14.18.86.86 0 0 1-.4.23ZM55.76 18c-1.67 0-2.8-.87-2.88-2.24h1.09c.08.78.84 1.3 1.88 1.3.99 0 1.7-.52 1.7-1.23 0-.61-.43-.98-1.43-1.24l-.98-.24c-1.41-.35-2.05-1-2.05-2.05 0-1.3 1.13-2.2 2.75-2.2 1.57 0 2.67.91 2.72 2.22h-1.08c-.07-.79-.71-1.27-1.67-1.27-.94 0-1.6.49-1.6 1.19 0 .56.41.89 1.42 1.14l.82.2c1.58.39 2.22 1 2.22 2.12 0 1.42-1.12 2.3-2.91 2.3Zm-7.2-6.92c-1.5 0-2.43 1.15-2.43 2.98 0 1.82.94 2.97 2.44 2.97 1.49 0 2.43-1.15 2.43-2.97 0-1.83-.94-2.98-2.43-2.98Z" clip-rule="evenodd"/><path fill="#A4A4A4" d="M91.48 2H82v9.48h9.48V2ZM102 2h-9.48v9.48H102V2ZM91.48 12.52H82V22h9.48v-9.48Zm10.52 0h-9.48V22H102v-9.48Zm21.51 6.55c-.52 0-.86.4-.86.93 0 .52.34.92.86.92s.87-.4.87-.92c0-.53-.36-.93-.87-.93Zm-.12-.57c.42 0 .77.2.93.44v-.39h.64v2.9h-.5a.14.14 0 0 1-.14-.15v-.24c-.16.23-.5.44-.92.44-.8 0-1.4-.67-1.4-1.5 0-.82.6-1.5 1.4-1.5Zm2.3.05h.63v.4c.18-.3.5-.45.88-.45.67 0 1.1.47 1.1 1.2v1.75h-.48a.14.14 0 0 1-.15-.15v-1.5c0-.45-.23-.73-.6-.73-.42 0-.75.33-.75.95v1.42h-.49a.14.14 0 0 1-.14-.14v-2.75Zm4.63.52c-.52 0-.87.4-.87.93 0 .52.35.92.87.92.51 0 .86-.4.86-.92 0-.53-.35-.93-.87-.93Zm-.12-.57c.41 0 .76.2.93.44V17.1h.63v4.34h-.48a.14.14 0 0 1-.15-.14v-.24c-.16.23-.5.44-.93.44-.79 0-1.4-.67-1.4-1.5 0-.82.6-1.5 1.4-1.5Zm2.29.05h.63v.52a.82.82 0 0 1 .77-.55l.24.03v.65a1.03 1.03 0 0 0-.31-.05c-.37 0-.7.3-.7.88v1.41h-.49a.14.14 0 0 1-.14-.14v-2.75Zm3.36 2.36c.5 0 .87-.4.87-.91 0-.52-.36-.92-.87-.92-.52 0-.88.4-.88.92 0 .51.36.9.88.9Zm0 .6a1.5 1.5 0 1 1 1.51-1.5 1.5 1.5 0 0 1-1.51 1.5Zm2.03-2.96h.64v2.9h-.49a.14.14 0 0 1-.14-.15v-2.75Zm.32-.63a.43.43 0 0 1-.43-.43.43.43 0 0 1 .73-.3.42.42 0 0 1-.3.73Zm2.35 1.15c-.52 0-.86.4-.86.93 0 .52.34.92.86.92s.87-.4.87-.92c-.01-.53-.35-.93-.87-.93Zm-.11-.57c.41 0 .76.2.92.44V17.1h.64v4.34h-.49a.14.14 0 0 1-.14-.14v-.24c-.17.23-.51.44-.93.44-.8 0-1.4-.67-1.4-1.5 0-.82.6-1.5 1.4-1.5M136.9 7.4l1.67-2.88a.34.34 0 0 0-.13-.47.34.34 0 0 0-.47.12l-1.69 2.92a10.43 10.43 0 0 0-8.55 0l-1.69-2.92a.35.35 0 0 0-.47-.12.35.35 0 0 0-.13.47l1.67 2.88a9.8 9.8 0 0 0-5.11 7.86h19.99a9.83 9.83 0 0 0-5.09-7.86Zm-9.5 5.01a.83.83 0 1 1 0-1.66.83.83 0 0 1 0 1.66Zm9.2 0a.83.83 0 0 1-.59-1.42.84.84 0 0 1 .9-.18.83.83 0 0 1 .28 1.36.83.83 0 0 1-.59.24ZM172 2a9.98 9.98 0 0 0-8.05 4.06l3.1 5.35a5 5 0 0 1 4.9-4.4A.49.49 0 0 1 172 7h8.66A9.99 9.99 0 0 0 172 2Zm-8.66 5a9.96 9.96 0 0 0-1.34 5 10 10 0 0 0 8.88 9.94l3.09-5.34a5 5 0 0 1-1.97.4 5 5 0 0 1-4.29-2.44.53.53 0 0 1-.04-.06L163.34 7ZM172 8a4 4 0 1 0 0 8 4 4 0 0 0 0-8Zm3 0a5 5 0 0 1 2 4 5 5 0 0 1-.63 2.42.54.54 0 0 1-.04.08L172 22a10 10 0 0 0 10-10 9.97 9.97 0 0 0-.83-4h-6.18Z"/><path fill="#A4A4A4" fill-rule="evenodd" d="M208.66 17.52a7.46 7.46 0 0 0 5.9 3.02 7.16 7.16 0 0 0 3.98-1.22 9.89 9.89 0 0 1-7.09 2.52A9.93 9.93 0 0 1 211.93 2h.03a9.89 9.89 0 0 1 6.58 2.53 7.16 7.16 0 0 0-3.98-1.22 7.46 7.46 0 0 0-5.9 3.02 8.64 8.64 0 0 0-1.86 5.36v.47a8.64 8.64 0 0 0 1.86 5.36ZM209 6.81A7.5 7.5 0 0 1 214.82 4c1.43 0 2.77.41 3.92 1.13A8.97 8.97 0 0 1 222 12a8.97 8.97 0 0 1-3.26 6.87 7.37 7.37 0 0 1-3.92 1.13 7.5 7.5 0 0 1-5.82-2.8c.9 1 2.06 1.6 3.32 1.6 2.85 0 5.16-3.05 5.16-6.8s-2.31-6.8-5.16-6.8c-1.26 0-2.42.6-3.32 1.6ZM253.84 13.7l.06-.07c.4-.51.6-1.14.6-1.56v-.22a2.49 2.49 0 0 0-.49-1.33 2.52 2.52 0 0 0-2-1.01c-.54-.01-.94.18-1.2.3h-.02a2.46 2.46 0 0 0-1.28 2.14c0 3.26 3.22 5.8 6.91 5.8a7.96 7.96 0 0 0 2.8-.5c.29-.1.57-.23.83-.36a.31.31 0 0 1 .42.44 10.03 10.03 0 0 1-5.2 4.12l-.1.04a10 10 0 0 1-12.21-5.24 10.15 10.15 0 0 1-.95-4.38 4.6 4.6 0 0 1 .05-.65 4.28 4.28 0 0 0-.06.62A10 10 0 0 1 252 2c3.88 0 7.46 1.86 9.11 5.1l.05.09c.28.55.86 1.68.84 3.34a4.8 4.8 0 0 1-2.38 4.13 4.65 4.65 0 0 1-2.36.65c-.08 0-2.14.1-3.25-.67-.23-.17-.37-.36-.37-.57 0-.19.12-.3.2-.38ZM242 11.85v-.02Z" clip-rule="evenodd"/></svg>
